app/img/calender-icon.svg

<svg width="15" height="15" fill="none" xmlns="http://www.w3.org/2000/svg"><path d="M4.25 6.15c0 .32-.26.59-.59.59-.33 0-.58-.26-.58-.59 0-.32.26-.59.59-.59.33 0 .58.27.58.59zm5.1 0a.591.591 0 00-1.18 0 .591.591 0 001.18 0zm2.54 0a.591.591 0 00-1.18 0 .591.591 0 001.18 0zM4.25 8.7c0-.32-.26-.59-.59-.59a.591.591 0 00.01 1.18c.33 0 .58-.27.58-.59zm-.59 1.96a.591.591 0 10.002 1.182.591.591 0 00-.002-1.182zM6.8 6.15c0-.32-.26-.59-.59-.59a.591.591 0 00.01 1.18c.33 0 .58-.26.58-.59zm0 2.55c0-.32-.26-.59-.59-.59a.591.591 0 00.01 1.18c.33 0 .58-.27.58-.59zm-.59 1.96a.591.591 0 10.59.59c0-.32-.27-.59-.59-.59zm8.79.8c0 1.95-1.59 3.54-3.54 3.54s-3.54-1.59-3.54-3.54 1.59-3.54 3.54-3.54A3.54 3.54 0 0115 11.46zm-1.17 0c0-1.31-1.06-2.37-2.37-2.37s-2.37 1.06-2.37 2.37 1.06 2.37 2.37 2.37 2.37-1.07 2.37-2.37zm-1.53-.59h-.26v-.62a.591.591 0 00-1.18 0v1.2c0 .32.26.59.59.59h.85c.32 0 .59-.26.59-.59 0-.33-.26-.58-.59-.58zm.36-9.7h-.76V.59a.591.591 0 00-1.18 0v.59H8.06V.59a.591.591 0 00-1.18 0v.59H4.25V.59c0-.33-.26-.59-.59-.59-.33 0-.58.26-.58.59v.59h-.74A2.33 2.33 0 000 3.52v9.14C0 13.95 1.05 15 2.34 15h4.48a.591.591 0 000-1.18H2.34c-.65 0-1.17-.53-1.17-1.17V3.52c0-.65.53-1.17 1.17-1.17h.73v.59a.591.591 0 001.18 0v-.6h2.64v.59a.591.591 0 001.18 0v-.59h2.67v.59a.591.591 0 001.18 0v-.59h.76c.65 0 1.17.53 1.17 1.17v3.34c0 .32.26.59.59.59.33 0 .56-.26.56-.58V3.52c0-1.3-1.05-2.35-2.34-2.35z" fill="#FF715B"/></svg>

<svg width="15" height="15" viewBox="0 0 15 15" fill="none" xmlns="http://www.w3.org/2000/svg">
<path d="M4.25 6.15C4.25 6.47 3.99 6.74 3.66 6.74C3.33 6.74 3.08 6.48 3.08 6.15C3.08 5.83 3.34 5.56 3.67 5.56C4 5.56 4.25 5.83 4.25 6.15ZM9.35 6.15C9.35 5.83 9.09 5.56 8.76 5.56C8.43 5.56 8.17 5.83 8.17 6.15C8.17 6.47 8.43 6.74 8.76 6.74C9.09 6.74 9.35 6.48 9.35 6.15ZM11.89 6.15C11.89 5.83 11.63 5.56 11.3 5.56C10.97 5.56 10.71 5.82 10.71 6.15C10.71 6.47 10.97 6.74 11.3 6.74C11.63 6.74 11.89 6.48 11.89 6.15ZM4.25 8.7C4.25 8.38 3.99 8.11 3.66 8.11C3.33 8.11 3.08 8.38 3.08 8.7C3.08 9.02 3.34 9.29 3.67 9.29C4 9.29 4.25 9.02 4.25 8.7ZM3.66 10.66C3.34 10.66 3.07 10.92 3.07 11.25C3.07 11.57 3.33 11.84 3.66 11.84C3.99 11.84 4.25 11.58 4.25 11.25C4.25 10.93 3.99 10.66 3.66 10.66ZM6.8 6.15C6.8 5.83 6.54 5.56 6.21 5.56C5.88 5.56 5.63 5.83 5.63 6.15C5.63 6.47 5.89 6.74 6.22 6.74C6.55 6.74 6.8 6.48 6.8 6.15ZM6.8 8.7C6.8 8.38 6.54 8.11 6.21 8.11C5.88 8.11 5.63 8.38 5.63 8.7C5.63 9.02 5.89 9.29 6.22 9.29C6.55 9.29 6.8 9.02 6.8 8.7ZM6.21 10.66C5.89 10.66 5.62 10.92 5.62 11.25C5.62 11.57 5.88 11.84 6.21 11.84C6.54 11.84 6.8 11.58 6.8 11.25C6.8 10.93 6.53 10.66 6.21 10.66ZM15 11.46C15 13.41 13.41 15 11.46 15C9.51 15 7.92 13.41 7.92 11.46C7.92 9.51 9.51 7.92 11.46 7.92C13.41 7.92 15 9.5 15 11.46ZM13.83 11.46C13.83 10.15 12.77 9.09 11.46 9.09C10.15 9.09 9.09 10.15 9.09 11.46C9.09 12.77 10.15 13.83 11.46 13.83C12.77 13.83 13.83 12.76 13.83 11.46ZM12.3 10.87H12.04V10.25C12.04 9.93 11.78 9.66 11.45 9.66C11.12 9.66 10.86 9.92 10.86 10.25V11.45C10.86 11.77 11.12 12.04 11.45 12.04H12.3C12.62 12.04 12.89 11.78 12.89 11.45C12.89 11.12 12.63 10.87 12.3 10.87ZM12.66 1.17H11.9V0.59C11.9 0.27 11.64 0 11.31 0C10.98 0 10.72 0.26 10.72 0.59V1.18H8.06V0.59C8.06 0.26 7.79 0 7.47 0C7.15 0 6.88 0.26 6.88 0.59V1.18H4.25V0.59C4.25 0.26 3.99 0 3.66 0C3.33 0 3.08 0.26 3.08 0.59V1.18H2.34C1.05 1.17 0 2.22 0 3.52V12.66C0 13.95 1.05 15 2.34 15H6.82C7.14 15 7.41 14.74 7.41 14.41C7.41 14.08 7.15 13.82 6.82 13.82H2.34C1.69 13.82 1.17 13.29 1.17 12.65V3.52C1.17 2.87 1.7 2.35 2.34 2.35H3.07V2.94C3.07 3.26 3.33 3.53 3.66 3.53C3.99 3.53 4.25 3.27 4.25 2.94V2.34H6.89V2.93C6.89 3.25 7.15 3.52 7.48 3.52C7.8 3.52 8.07 3.26 8.07 2.93V2.34H10.74V2.93C10.74 3.25 11 3.52 11.33 3.52C11.66 3.52 11.92 3.26 11.92 2.93V2.34H12.68C13.33 2.34 13.85 2.87 13.85 3.51V6.85C13.85 7.17 14.11 7.44 14.44 7.44C14.77 7.44 15 7.18 15 6.86V3.52C15 2.22 13.95 1.17 12.66 1.17Z" fill="#FF715B"/>
</svg>
